icons/svg/error_8.svg

<?xml version="1.0" encoding="UTF-8"?>
<svg width="8px" height="8px" viewBox="0 0 8 8" version="1.1" xmlns="http://www.w3.org/2000/svg" xmlns:xlink="http://www.w3.org/1999/xlink">
    <!-- Generator: Sketch 60.1 (88133) - https://sketch.com -->
    <title>alerts-and-notifications/error_8</title>
    <desc>Created with Sketch.</desc>
    <g id="alerts-and-notifications/error_8" stroke="none" stroke-width="1" fill="none" fill-rule="evenodd">
        <path d="M4,8 C1.790861,8 0,6.209139 0,4 C0,1.790861 1.790861,0 4,0 C6.209139,0 8,1.790861 8,4 C8,6.209139 6.209139,8 4,8 Z M4,7 C5.65685425,7 7,5.65685425 7,4 C7,2.34314575 5.65685425,1 4,1 C2.34314575,1 1,2.34314575 1,4 C1,5.65685425 2.34314575,7 4,7 Z M4.0002,3.2934 L2.8542,2.1474 C2.6582,1.9514 2.3422,1.9514 2.1462,2.1474 C1.9512,2.3424 1.9512,2.6584 2.1462,2.8544 L3.2932,4.0004 L2.1462,5.1474 C1.9512,5.3424 1.9512,5.6584 2.1462,5.8544 C2.2442,5.9514 2.3722,6.0004 2.5002,6.0004 C2.6282,6.0004 2.7562,5.9514 2.8542,5.8544 L4.0002,4.7074 L5.1462,5.8544 C5.2442,5.9514 5.3722,6.0004 5.5002,6.0004 C5.6282,6.0004 5.7562,5.9514 5.8542,5.8544 C6.0492,5.6584 6.0492,5.3424 5.8542,5.1474 L4.7072,4.0004 L5.8542,2.8544 C6.0492,2.6584 6.0492,2.3424 5.8542,2.1474 C5.6582,1.9514 5.3422,1.9514 5.1462,2.1474 L4.0002,3.2934 Z" id="fill" fill="#171B1F"></path>
    </g>
</svg>

<svg width="8" height="8" viewBox="0 0 8 8" xmlns="http://www.w3.org/2000/svg"><title>alerts-and-notifications/error_8</title><path d="M6.966 5.432L5.349 7l-2.78-.034L1 5.349l.034-2.78L2.652 1l2.697 0L7 2.652l-.034 2.78zm.707-3.57c.208.21.327.498.327.79l0 2.697c0 .292-.119.58-.325.789L6.139 7.673c-.21.208-.498.327-.79.327L2.652 8c-.292 0-.581-.119-.79-.325L.327 6.139C.119 5.93 0 5.642 0 5.349l0-2.697c0-.293.119-.581.326-.789L1.862.328C2.071.12 2.36 0 2.652 0l2.697 0c.292 0 .58.12.789.326l1.535 1.536zM4.0002 3.2934l-1.146-1.146c-.196-.196-.512-.196-.708 0-.195.195-.195.511 0 .707l1.147 1.146-1.147 1.147c-.195.195-.195.511 0 .707.098.097.226.146.354.146.128 0 .256-.049.354-.146l1.146-1.147 1.146 1.147c.098.097.226.146.354.146.128 0 .256-.049.354-.146.195-.196.195-.512 0-.707l-1.147-1.147 1.147-1.146c.195-.196.195-.512 0-.707-.196-.196-.512-.196-.708 0l-1.146 1.146z" fill-rule="evenodd"/></svg>
